src/assets/icons/buy-active.svg

<svg width="24" height="24" viewBox="0 0 24 24" fill="none" xmlns="http://www.w3.org/2000/svg">
<path d="M4.25 10.25C4.25 8.61999 4.25 7.80498 4.49907 7.15612C4.87994 6.16393 5.66393 5.37994 6.65612 4.99907C7.30498 4.75 8.11999 4.75 9.75 4.75H14.6133C17.1634 4.75 18.4384 4.75 19.2527 5.17406C20.5009 5.82418 21.28 7.1185 21.2703 8.52587C21.264 9.44387 20.6672 10.5706 19.4737 12.8242C18.9963 13.7257 18.7575 14.1764 18.4361 14.5284C17.9456 15.0657 17.3093 15.4487 16.6049 15.6307C16.1434 15.75 15.6334 15.75 14.6133 15.75H9.75C8.11999 15.75 7.30498 15.75 6.65612 15.5009C5.66393 15.1201 4.87994 14.3361 4.49907 13.3439C4.25 12.695 4.25 11.88 4.25 10.25Z" fill="#1D2129"/>
<path d="M10 19C10 20.1046 9.10457 21 8 21C6.89543 21 6 20.1046 6 19C6 17.8954 6.89543 17 8 17C9.10457 17 10 17.8954 10 19Z" fill="#1D2129"/>
<path d="M18 19C18 20.1046 17.1046 21 16 21C14.8954 21 14 20.1046 14 19C14 17.8954 14.8954 17 16 17C17.1046 17 18 17.8954 18 19Z" fill="#1D2129"/>
<path d="M5.75 5.5C5.75 5.08579 5.41421 4.75 5 4.75C4.58579 4.75 4.25 5.08579 4.25 5.5H5.75ZM4.25 11.5C4.25 11.9142 4.58579 12.25 5 12.25C5.41421 12.25 5.75 11.9142 5.75 11.5H4.25ZM3 2.75C2.58579 2.75 2.25 3.08579 2.25 3.5C2.25 3.91421 2.58579 4.25 3 4.25V2.75ZM5.75 11.5V5.5H4.25V11.5H5.75ZM5.75 11.5V5.5H4.25V11.5H5.75ZM5.75 5.5C5.75 3.98122 4.51878 2.75 3 2.75V4.25C3.69036 4.25 4.25 4.80964 4.25 5.5H5.75Z" fill="#1D2129"/>
</svg>

<svg width="24" height="24" fill="none" xmlns="http://www.w3.org/2000/svg"><path d="M4.25 10.25c0-1.63 0-2.445.25-3.094A3.75 3.75 0 0 1 6.655 5C7.305 4.75 8.12 4.75 9.75 4.75h4.863c2.55 0 3.825 0 4.64.424a3.75 3.75 0 0 1 2.017 3.352c-.006.918-.603 2.045-1.796 4.298-.478.902-.716 1.352-1.038 1.704a3.75 3.75 0 0 1-1.831 1.103c-.462.119-.972.119-1.992.119H9.75c-1.63 0-2.445 0-3.094-.25A3.75 3.75 0 0 1 4.5 13.345c-.249-.649-.249-1.464-.249-3.094M10 19a2 2 0 1 1-4 0 2 2 0 0 1 4 0M18 19a2 2 0 1 1-4 0 2 2 0 0 1 4 0" fill="#1D2129"/><path d="M5.75 5.5a.75.75 0 0 0-1.5 0zm-1.5 6a.75.75 0 0 0 1.5 0zM3 2.75a.75.75 0 0 0 0 1.5zm2.75 8.75v-6h-1.5v6zm0 0v-6h-1.5v6zm0-6A2.75 2.75 0 0 0 3 2.75v1.5c.69 0 1.25.56 1.25 1.25z" fill="#1D2129"/></svg>
